public/favicon.svg

<svg width="64" height="64" viewBox="0 0 64 64" fill="none" xmlns="http://www.w3.org/2000/svg">
<g clip-path="url(#clip0_118_378)">
<path d="M1.31449 13.7697H5.14094V52.5333H1.31449V13.7697ZM22.3912 13.7697C26.0882 13.7697 29.4525 14.6201 32.4841 16.3207C35.5527 18.0213 37.9557 20.369 39.6934 23.3636C41.4679 26.3212 42.3552 29.5931 42.3552 33.1793C42.3552 36.7654 41.4679 40.0373 39.6934 42.9949C37.9557 45.9526 35.5527 48.2817 32.4841 49.9824C29.4156 51.683 26.0143 52.5333 22.2802 52.5333H6.80808V13.7697H22.3912ZM22.5021 49.0951C25.4227 49.0951 28.1031 48.3926 30.5432 46.9877C32.9832 45.5829 34.9057 43.6789 36.3106 41.2758C37.7524 38.8357 38.4733 36.1369 38.4733 33.1793C38.4733 30.2216 37.7524 27.5228 36.3106 25.0827C34.8687 22.6427 32.9093 20.7202 30.4322 19.3153C27.9922 17.9104 25.2933 17.208 22.3357 17.208H10.6345V49.0951H22.5021ZM61.763 20.0917C60.1733 19.0935 58.4357 18.3356 56.5502 17.818C54.6647 17.2634 52.8901 16.9862 51.2264 16.9862C48.5645 16.9862 46.4203 17.5222 44.7936 18.5944C43.2038 19.6296 42.409 21.0529 42.409 22.8645C42.409 24.4542 42.8526 25.7482 43.7399 26.7464C44.6272 27.7446 45.7178 28.5395 47.0118 29.131C48.3058 29.6855 50.0803 30.314 52.3355 31.0165C54.9604 31.7929 57.0678 32.5692 58.6575 33.3456C60.2842 34.085 61.6521 35.1757 62.7612 36.6175C63.9073 38.0594 64.4804 39.9633 64.4804 42.3295C64.4804 44.3998 63.8888 46.2299 62.7058 47.8196C61.5597 49.4093 59.933 50.6478 57.8257 51.5351C55.7183 52.3854 53.2968 52.8106 50.561 52.8106C47.8621 52.8106 45.2187 52.2745 42.6308 51.2024C40.0798 50.1302 37.8801 48.7069 36.0315 46.9323L37.8061 43.7713C39.5437 45.472 41.5586 46.8029 43.8508 47.7641C46.143 48.7254 48.3982 49.206 50.6164 49.206C53.5741 49.206 55.9217 48.6144 57.6593 47.4314C59.3969 46.2114 60.2657 44.5847 60.2657 42.5513C60.2657 40.9246 59.8221 39.5936 58.9348 38.5585C58.0475 37.5233 56.9569 36.7284 55.6629 36.1739C54.3689 35.6193 52.5574 34.9723 50.2282 34.2329C47.6033 33.4196 45.496 32.6617 43.9063 31.9592C42.3165 31.2198 40.9671 30.1477 39.858 28.7428C38.7489 27.3009 38.1943 25.4339 38.1943 23.1418C38.1943 21.1823 38.7489 19.4632 39.858 17.9844C40.9671 16.5056 42.5199 15.378 44.5163 14.6016C46.5127 13.7882 48.8233 13.3815 51.4482 13.3815C53.5556 13.3815 55.6629 13.6958 57.7702 14.3243C59.9145 14.9528 61.8 15.7846 63.4267 16.8198L61.763 20.0917Z" fill="white"/>
</g>
<defs>
<clipPath id="clip0_118_378">
<rect width="64" height="64" fill="white"/>
</clipPath>
</defs>
</svg>

<svg width="64" height="64" fill="none" xmlns="http://www.w3.org/2000/svg"><g clip-path="url(#a)"><path d="M1.314 13.77h3.827v38.763H1.314V13.77Zm21.077 0c3.697 0 7.062.85 10.093 2.55 3.069 1.701 5.472 4.049 7.21 7.044 1.774 2.957 2.661 6.23 2.661 9.815 0 3.586-.887 6.858-2.662 9.816-1.737 2.958-4.14 5.287-7.209 6.987-3.068 1.701-6.47 2.551-10.204 2.551H6.808V13.77h15.583Zm.111 35.325c2.92 0 5.601-.702 8.041-2.107 2.44-1.405 4.363-3.31 5.768-5.712 1.441-2.44 2.162-5.14 2.162-8.097s-.72-5.656-2.162-8.096a15.717 15.717 0 0 0-5.879-5.768c-2.44-1.405-5.139-2.107-8.096-2.107H10.635v31.887h11.867Zm39.261-29.003a19.397 19.397 0 0 0-5.213-2.274c-1.885-.555-3.66-.832-5.324-.832-2.661 0-4.806.536-6.432 1.608-1.59 1.036-2.385 2.459-2.385 4.27 0 1.59.444 2.884 1.33 3.882.888.999 1.979 1.794 3.273 2.385 1.294.555 3.068 1.183 5.324 1.886 2.624.776 4.732 1.552 6.322 2.329a10.691 10.691 0 0 1 4.103 3.272c1.146 1.441 1.72 3.345 1.72 5.712 0 2.07-.592 3.9-1.775 5.49-1.146 1.59-2.773 2.828-4.88 3.715-2.108.85-4.53 1.276-7.265 1.276-2.699 0-5.342-.536-7.93-1.609-2.551-1.072-4.75-2.495-6.6-4.27l1.775-3.16a19.131 19.131 0 0 0 6.045 3.992c2.292.961 4.547 1.442 6.765 1.442 2.958 0 5.306-.592 7.043-1.775 1.738-1.22 2.607-2.846 2.607-4.88 0-1.626-.444-2.957-1.331-3.992a8.817 8.817 0 0 0-3.272-2.385c-1.294-.555-3.106-1.202-5.435-1.941-2.625-.813-4.732-1.571-6.322-2.274a11.02 11.02 0 0 1-4.048-3.216c-1.11-1.442-1.664-3.31-1.664-5.601 0-1.96.555-3.679 1.664-5.158 1.11-1.478 2.662-2.606 4.658-3.382 1.997-.814 4.307-1.22 6.932-1.22 2.108 0 4.215.314 6.322.942 2.144.629 4.03 1.46 5.657 2.496l-1.664 3.272Z" fill="#fff"/></g><defs><clipPath id="a"><path fill="#fff" d="M0 0h64v64H0z"/></clipPath></defs></svg>
